X: 6830
T: Charlie Hunter
R: jig
M: 6/8
K: Dmajor
|:DFA GBd|Adf a2 g|f2 d Bcd|ecA GFE|
DFA GBd|Adf a2 g|faf gec|1 edc d3:|2 edc d2||
|:f|afd d2 c|BGF G2 F|EGB e2 d|cAA A2 e|
fdA DFA|GBd g2 e|faf gec|1 edc d2:|2 edc d3||

